X:1
T:White as Snow
T:White as Snow
T:Philip Paul Bliss
T:L. N., 1873
T:Public Domain Courtesy of the Cyber Hymnal™
C:Philip Paul Bliss
Z:Public Domain
Z:Courtesy of the Cyber Hymnal™
%%score ( 1 2 ) ( 3 4 )
L:1/8
Q:1/4=106
M:4/4
K:C
V:1 treble 
V:2 treble 
V:3 bass 
V:4 bass 
V:1
 !fermata!G2 | [Ec]2 [Ec]2 (cB) (AB) | [Ec]4 [EG]2 [EG]2 x8 | [FA]2 [EG]2 C2 [B,D]2 | [CE]6 [EG]2 | %5
w: 1.~What!|“lay my sins * on *|Je- sus?” God’s|well be- lov- èd|Son! No!|
w: 2.~Yes,|’tis a truth * most *|pre- cious, To|all who do be-|lieve, God|
w: 3.~What!|“bring our guilt * to *|Je- sus?” To|wash a- way our|stains; The|
 [Ec]2 [Ec]2 (cB) (AB) | [Ec]4 [EG]2 [Ec]2 | [DB]2 (AB) [Dc]2 [D^F]2 |: [DG]6 |"^Refrain" G>G x6 | %10
w: ’tis a truth * most *|pre- cious, That|God even * that has|done.||
w: laid our sins * on *|Je- sus, Who|did the * load re-|ceive.|Hal- le-|
w: act is passed * that *|freed us, And|naught to * do re-|mains.||
 ([Fd]3 [E^c]) [Fd]2 [Ge]>[Fd] | [Ec]4 [EG]2 [Ec]2 | [FB]3 [FB] [FA]2 [FB]2 :| [Ec]6 :| %14
w: ||||
w: lu- * jah, Je- sus|saves me, He|makes me “white as|snow.”|
w: ||||
V:2
 G2 | x4 F2 F2 | x16 | x4 C2 x2 | x8 | x4 F2 F2 | x8 | x2 D2 x4 |: x6 | G>G x6 | x8 | x8 | x8 :| %13
 x6 :| %14
V:3
 !fermata!G,2 | [C,G,]2 [C,C]2 [G,D]2 [G,D]2 | [C,C]4 [C,C]2 [C,C]2 [C,C]2 [C,C]2 [E,G,]2 [D,G,]2 | %3
 [C,G,]6 [C,G,]2 | [C,G,]2 [C,C]2 [G,D]2 [G,D]2 | [C,C]4 [C,C]2 [C,G,]2 | %6
 [D,G,]2 (^F,G,) [D,A,]2 [D,C]2 | [G,B,]6 x2 |: G,>G, x4 | (B,3 ^A,) [G,B,]2 [G,B,]>[G,B,] | %10
 [C,C]4 [C,C]2 [C,C]2 | [G,D]3 [G,D] [G,C]2 [G,C]2 | [C,C]6 x2 :| x6 :| %14
V:4
 G,2 | x8 | x16 | x8 | x8 | x8 | x2 D,2 x4 | x8 |: G,>G, x4 | G,4 x4 | x8 | x8 | x8 :| x6 :| %14

